svg/fluentui-system-icons/ic_fluent_multiselect_rtl_20_filled.svg

<svg width="20" height="20" viewBox="0 0 20 20" fill="none" xmlns="http://www.w3.org/2000/svg">
<path d="M2 5.25C2 4.83579 2.33579 4.5 2.75 4.5H11.25C11.6642 4.5 12 4.83579 12 5.25C12 5.66421 11.6642 6 11.25 6H2.75C2.33579 6 2 5.66421 2 5.25ZM2 10.25C2 9.83579 2.33579 9.5 2.75 9.5H11.25C11.6642 9.5 12 9.83579 12 10.25C12 10.6642 11.6642 11 11.25 11H2.75C2.33579 11 2 10.6642 2 10.25ZM2.75 14.5C2.33579 14.5 2 14.8358 2 15.25C2 15.6642 2.33579 16 2.75 16H11.25C11.6642 16 12 15.6642 12 15.25C12 14.8358 11.6642 14.5 11.25 14.5H2.75ZM18.3075 4.25173C18.5846 3.94385 18.5596 3.46963 18.2517 3.19254C17.9438 2.91544 17.4696 2.9404 17.1925 3.24828L15.4714 5.1607L14.7803 4.46968C14.4874 4.17678 14.0126 4.17678 13.7197 4.46968C13.4268 4.76257 13.4268 5.23744 13.7197 5.53034L14.9697 6.78034C15.1152 6.92583 15.314 7.00516 15.5197 6.99975C15.7254 6.99434 15.9198 6.90467 16.0575 6.75173L18.3075 4.25173ZM18.2517 13.1925C18.5596 13.4696 18.5846 13.9438 18.3075 14.2517L16.0575 16.7517C15.9198 16.9047 15.7254 16.9943 15.5197 16.9997C15.314 17.0051 15.1152 16.9258 14.9697 16.7803L13.7197 15.5303C13.4268 15.2374 13.4268 14.7626 13.7197 14.4697C14.0126 14.1768 14.4874 14.1768 14.7803 14.4697L15.4714 15.1607L17.1925 13.2483C17.4696 12.9404 17.9438 12.9154 18.2517 13.1925Z" fill="#212121"/>
</svg>

<svg xmlns="http://www.w3.org/2000/svg" width="20" height="20"><path d="M2 5.25a.75.75 0 0 1 .75-.75h8.5a.75.75 0 0 1 0 1.5h-8.5A.75.75 0 0 1 2 5.25Zm0 5a.75.75 0 0 1 .75-.75h8.5a.75.75 0 0 1 0 1.5h-8.5a.75.75 0 0 1-.75-.75Zm.75 4.25a.75.75 0 0 0 0 1.5h8.5a.75.75 0 0 0 0-1.5h-8.5ZM18.308 4.252a.75.75 0 1 0-1.116-1.004l-1.72 1.913-.692-.691a.75.75 0 1 0-1.06 1.06l1.25 1.25a.75.75 0 0 0 1.088-.028l2.25-2.5Zm-.056 8.94a.75.75 0 0 1 .056 1.06l-2.25 2.5a.75.75 0 0 1-1.088.028l-1.25-1.25a.75.75 0 1 1 1.06-1.06l.691.69 1.721-1.912a.75.75 0 0 1 1.06-.055Z"/></svg>
